icon-svg/phoenix-table.svg

<svg xmlns="http://www.w3.org/2000/svg" fill="#44739e" viewBox="0 0 24 24"><path d="M22.8 4c-.1-.5-.6-.8-1-.7 0 0-.1 0-.3.1-1.6-1.6-7.3-3-9.4-3-2.2 0-7.8 1.4-9.4 3-.2 0-.3-.1-.4-.1-.5-.1-.9.2-1 .7-.2.5.1 1 .6 1.1 0 0 .3.1.8.1.9.9 3 1.9 5.6 2.4l-.9 13.9c0 1.3 2.3 2 4.6 2s4.6-.7 4.6-2l-.8-13.9c2.5-.5 4.6-1.4 5.5-2.4.5-.1.8-.1.8-.1.5-.1.8-.6.7-1.1M12 7c-3 0-5.6-.8-7.2-1.5 1.7.2 4.2.3 7.4.3 3 0 5.2-.1 6.8-.3-1.6.8-4.1 1.5-7 1.5m.2-3C8.3 4 5.6 3.8 4 3.6c1.7-.9 5.6-2.1 8-2.1s6.3 1.2 8.1 2.2c-1.6.1-4.1.3-7.9.3"/></svg>

<svg viewBox="0 0 24 24" height="24px" width="24px" fill="#44739e" xmlns="http://www.w3.org/2000/svg"><title>hue:phoenix-table</title><path d="M22.8,4c-0.1-0.5-0.6-0.8-1-0.7c0,0-0.1,0-0.3,0.1c-1.6-1.6-7.3-3-9.4-3c-2.2,0-7.8,1.4-9.4,3c-0.2,0-0.3-0.1-0.4-0.1 c-0.5-0.1-0.9,0.2-1,0.7C1.1,4.5,1.4,5,1.9,5.1c0,0,0.3,0.1,0.8,0.1c0.9,0.9,3,1.9,5.6,2.4L7.4,21.5c0,1.3,2.3,2,4.6,2 s4.6-0.7,4.6-2L15.8,7.6c2.5-0.5,4.6-1.4,5.5-2.4c0.5-0.1,0.8-0.1,0.8-0.1C22.6,5,22.9,4.5,22.8,4z M12,7C9,7,6.4,6.2,4.8,5.5 c1.7,0.2,4.2,0.3,7.4,0.3c3,0,5.2-0.1,6.8-0.3C17.4,6.3,14.9,7,12,7z M12.2,4C8.3,4,5.6,3.8,4,3.6c1.7-0.9,5.6-2.1,8-2.1 c2.4,0,6.3,1.2,8.1,2.2C18.5,3.8,16,4,12.2,4z"/></svg>
